X: 155
T: Nostalgia in Times Square
M: 4/4
L: 1/8
C: Charles Mingus
Q: 1/4=140
K: G
%%text (slow swing)
P: A
D |:"G7"GG3 "F7"z3D | "G7"GG3 "F7"z3D | "G7"(3GGG _BB "F7"GG=FD | "G7"GG3 "F7"z3G |
"Bbm7"cc3 "Eb7"z3G | "Bbm7"cc3 "Eb7"z3D | "G7"(3GGG _BB "F7"GG=FD | "G7"GG3 "F7"z3G |
"Em7"dgdG "A7"^c2zG | "Dm7"=c2dB "G7"z3G | "Cm7"_B2BB "F7"GA2G |[1 "G7"z2e_e dBGD :|[2 "G7"z8 |]
